X:59
T:Ann Sheehy McAuliffe
B:Terry "Cuz" Teahan "Sliabh Luachra on Parade" 1980
Z:Patrick Cavanagh
M:2/4
L:1/8
R:Polka
K:D
D/E/ | FA FA | d2 dG | FA FA | FE ED/E/ | 
FA FA | d2 d2 | Bc/B/ AF | EF D :| 
e | fa/f/ ed | Bd A2 | fa/f/ ed | fe ef | 
dd/e/ fd | Bd A2 | FE FA/F/ | EF D :|| 

